build/img/logo/logo.svg

<svg width="150" height="27" viewBox="0 0 150 27" fill="none" xmlns="http://www.w3.org/2000/svg">
  <path
    d="M51.1 26H48.08V14.24H44.58C44.5 14.8533 44.4133 15.52 44.32 16.24C44.24 16.96 44.1467 17.6933 44.04 18.44C43.9467 19.1733 43.8467 19.8733 43.74 20.54C43.6333 21.1933 43.5267 21.7733 43.42 22.28C43.2467 23.1067 43.0133 23.8133 42.72 24.4C42.44 24.9867 42.0467 25.4333 41.54 25.74C41.0467 26.0467 40.4 26.2 39.6 26.2C39.08 26.2 38.6 26.1267 38.16 25.98V23.5C38.3333 23.5533 38.5 23.6 38.66 23.64C38.8333 23.68 39.02 23.7 39.22 23.7C39.6067 23.7 39.9 23.5 40.1 23.1C40.3133 22.6867 40.5267 21.92 40.74 20.8C40.82 20.3733 40.9333 19.7067 41.08 18.8C41.2267 17.8933 41.3867 16.8333 41.56 15.62C41.7467 14.3933 41.92 13.0933 42.08 11.72H51.1V26ZM54.7023 11.72H57.4223V18.62C57.4223 18.9533 57.4157 19.3267 57.4023 19.74C57.389 20.1533 57.3757 20.56 57.3623 20.96C57.349 21.3467 57.3357 21.6867 57.3223 21.98C57.309 22.26 57.2957 22.4533 57.2823 22.56H57.3423L63.9423 11.72H67.5623V26H64.8623V19.14C64.8623 18.78 64.869 18.3867 64.8823 17.96C64.8957 17.52 64.909 17.1 64.9223 16.7C64.949 16.3 64.969 15.9533 64.9823 15.66C65.009 15.3533 65.029 15.1533 65.0423 15.06H64.9623L58.3423 26H54.7023V11.72ZM80.1872 11.72V14.22H74.1872V26H71.1672V11.72H80.1872ZM89.7119 26L88.6719 22.6H83.4719L82.4319 26H79.1719L84.2119 11.66H87.9119L92.9719 26H89.7119ZM87.9519 20.06L86.9119 16.74C86.8452 16.5133 86.7585 16.2267 86.6519 15.88C86.5452 15.5333 86.4385 15.18 86.3319 14.82C86.2252 14.46 86.1385 14.1467 86.0719 13.88C86.0052 14.1467 85.9119 14.48 85.7919 14.88C85.6852 15.2667 85.5785 15.64 85.4719 16C85.3785 16.3467 85.3052 16.5933 85.2519 16.74L84.2319 20.06H87.9519ZM100.503 26V11.72H109.523V14.22H103.523V17.2H104.723C106.07 17.2 107.17 17.3867 108.023 17.76C108.89 18.1333 109.53 18.6467 109.943 19.3C110.356 19.9533 110.563 20.7 110.563 21.54C110.563 22.9533 110.09 24.0533 109.143 24.84C108.21 25.6133 106.716 26 104.663 26H100.503ZM103.523 23.52H104.543C105.463 23.52 106.183 23.3733 106.703 23.08C107.236 22.7867 107.503 22.2733 107.503 21.54C107.503 20.78 107.216 20.28 106.643 20.04C106.07 19.8 105.29 19.68 104.303 19.68H103.523V23.52ZM117.497 14.86C118.964 14.86 120.084 15.18 120.857 15.82C121.644 16.4467 122.037 17.4133 122.037 18.72V26H119.957L119.377 24.52H119.297C118.83 25.1067 118.337 25.5333 117.817 25.8C117.297 26.0667 116.584 26.2 115.677 26.2C114.704 26.2 113.897 25.92 113.257 25.36C112.617 24.7867 112.297 23.9133 112.297 22.74C112.297 21.58 112.704 20.7267 113.517 20.18C114.33 19.62 115.55 19.3133 117.177 19.26L119.077 19.2V18.72C119.077 18.1467 118.924 17.7267 118.617 17.46C118.324 17.1933 117.91 17.06 117.377 17.06C116.844 17.06 116.324 17.14 115.817 17.3C115.31 17.4467 114.804 17.6333 114.297 17.86L113.317 15.84C113.904 15.5333 114.55 15.2933 115.257 15.12C115.977 14.9467 116.724 14.86 117.497 14.86ZM119.077 20.94L117.917 20.98C116.957 21.0067 116.29 21.18 115.917 21.5C115.544 21.82 115.357 22.24 115.357 22.76C115.357 23.2133 115.49 23.54 115.757 23.74C116.024 23.9267 116.37 24.02 116.797 24.02C117.437 24.02 117.977 23.8333 118.417 23.46C118.857 23.0733 119.077 22.5333 119.077 21.84V20.94ZM128.067 15.08V19.28H132.227V15.08H135.207V26H132.227V21.5H128.067V26H125.087V15.08H128.067ZM145.49 15.08H148.77L144.45 20.32L149.15 26H145.77L141.31 20.46V26H138.33V15.08H141.31V20.38L145.49 15.08Z"
    fill="#1F1E25"/>
  <path d="M16.75 1H13.8333L1 22.3415H4.79167L6.54167 19.2927L16.75 1Z" fill="#2C36F2"/>
  <path d="M2.75 26H27.25L16.75 7.09756L15 10.1463L20.25 19.2927L22 22.3415H4.79167H1L2.75 26Z" fill="#2C36F2"/>
  <path d="M22 22.3415L20.25 19.2927H9.75H6.54167L4.79167 22.3415H22Z" fill="#2C36F2"/>
  <path d="M27.25 26L29 22.3415L16.75 1L6.54167 19.2927H9.75L15 10.1463L16.75 7.09756L27.25 26Z" fill="#2C36F2"/>
  <path d="M15 10.1463L9.75 19.2927H20.25L15 10.1463Z" fill="#2C36F2"/>
  <path
    d="M27.25 26H2.75L1 22.3415M27.25 26L29 22.3415L16.75 1M27.25 26L16.75 7.09756L15 10.1463M16.75 1H13.8333L1 22.3415M16.75 1L6.54167 19.2927M1 22.3415H4.79167M15 10.1463L9.75 19.2927M15 10.1463L20.25 19.2927M9.75 19.2927H20.25M9.75 19.2927H6.54167M20.25 19.2927L22 22.3415H4.79167M6.54167 19.2927L4.79167 22.3415"
    stroke="#F6F7FF"/>
</svg>

<svg width="150" height="27" fill="none" xmlns="http://www.w3.org/2000/svg"><path d="M51.1 26h-3.02V14.24h-3.5l-.26 2c-.08.72-.173 1.453-.28 2.2a66.096 66.096 0 01-.3 2.1 39.205 39.205 0 01-.32 1.74c-.173.827-.407 1.533-.7 2.12-.28.587-.673 1.033-1.18 1.34-.493.307-1.14.46-1.94.46-.52 0-1-.073-1.44-.22V23.5c.173.053.34.1.5.14.173.04.36.06.56.06.387 0 .68-.2.88-.6.213-.413.427-1.18.64-2.3a90.4 90.4 0 00.34-2c.147-.907.307-1.967.48-3.18.187-1.227.36-2.527.52-3.9h9.02V26zm3.602-14.28h2.72v6.9c0 .333-.006.707-.02 1.12l-.04 1.22c-.013.387-.026.727-.04 1.02-.013.28-.026.473-.04.58h.06l6.6-10.84h3.62V26h-2.7v-6.86c0-.36.007-.753.02-1.18l.04-1.26c.027-.4.047-.747.06-1.04.027-.307.047-.507.06-.6h-.08L58.342 26h-3.64V11.72zm25.485 0v2.5h-6V26h-3.02V11.72h9.02zM89.712 26l-1.04-3.4h-5.2l-1.04 3.4h-3.26l5.04-14.34h3.7L92.972 26h-3.26zm-1.76-5.94l-1.04-3.32a76.767 76.767 0 00-.26-.86c-.107-.347-.213-.7-.32-1.06a22.88 22.88 0 01-.26-.94c-.067.267-.16.6-.28 1-.107.387-.213.76-.32 1.12a10.24 10.24 0 01-.22.74l-1.02 3.32h3.72zM100.503 26V11.72h9.02v2.5h-6v2.98h1.2c1.347 0 2.447.187 3.3.56.867.373 1.507.887 1.92 1.54.413.653.62 1.4.62 2.24 0 1.413-.473 2.513-1.42 3.3-.933.773-2.427 1.16-4.48 1.16h-4.16zm3.02-2.48h1.02c.92 0 1.64-.147 2.16-.44.533-.293.8-.807.8-1.54 0-.76-.287-1.26-.86-1.5s-1.353-.36-2.34-.36h-.78v3.84zm13.974-8.66c1.467 0 2.587.32 3.36.96.787.627 1.18 1.593 1.18 2.9V26h-2.08l-.58-1.48h-.08c-.467.587-.96 1.013-1.48 1.28-.52.267-1.233.4-2.14.4-.973 0-1.78-.28-2.42-.84-.64-.573-.96-1.447-.96-2.62 0-1.16.407-2.013 1.22-2.56.813-.56 2.033-.867 3.66-.92l1.9-.06v-.48c0-.573-.153-.993-.46-1.26-.293-.267-.707-.4-1.24-.4s-1.053.08-1.56.24c-.507.147-1.013.333-1.52.56l-.98-2.02a8.583 8.583 0 011.94-.72 9.542 9.542 0 012.24-.26zm1.58 6.08l-1.16.04c-.96.027-1.627.2-2 .52s-.56.74-.56 1.26c0 .453.133.78.4.98.267.187.613.28 1.04.28.64 0 1.18-.187 1.62-.56.44-.387.66-.927.66-1.62v-.9zm8.99-5.86v4.2h4.16v-4.2h2.98V26h-2.98v-4.5h-4.16V26h-2.98V15.08h2.98zm17.423 0h3.28l-4.32 5.24 4.7 5.68h-3.38l-4.46-5.54V26h-2.98V15.08h2.98v5.3l4.18-5.3z" fill="#1F1E25"/><path d="M16.75 1h-2.917L1 22.341h3.792l1.75-3.048L16.75 1z" fill="#2C36F2"/><path d="M2.75 26h24.5L16.75 7.098 15 10.146l5.25 9.147L22 22.342H1L2.75 26z" fill="#2C36F2"/><path d="M22 22.341l-1.75-3.048H6.542l-1.75 3.049H22z" fill="#2C36F2"/><path d="M27.25 26L29 22.341 16.75 1 6.542 19.293H9.75L15 10.146l1.75-3.048L27.25 26z" fill="#2C36F2"/><path d="M15 10.146l-5.25 9.147h10.5L15 10.146z" fill="#2C36F2"/><path d="M27.25 26H2.75L1 22.341M27.25 26L29 22.341 16.75 1m10.5 25L16.75 7.098 15 10.146M16.75 1h-2.917L1 22.341M16.75 1L6.542 19.293M1 22.342h3.792M15 10.146l-5.25 9.147M15 10.146l5.25 9.147m-10.5 0h10.5m-10.5 0H6.542m13.708 0L22 22.342H4.792m1.75-3.05l-1.75 3.05" stroke="#F6F7FF"/></svg>
